remix/Finance/exchange-box-line.svg

<svg viewBox="0 0 24 24" fill="currentColor" xmlns="http://www.w3.org/2000/svg"><path d="M4.00488 5.00275V19.0027H20.0049V5.00275H4.00488ZM3.00488 3.00275H21.0049C21.5572 3.00275 22.0049 3.45046 22.0049 4.00275V20.0027C22.0049 20.555 21.5572 21.0027 21.0049 21.0027H3.00488C2.4526 21.0027 2.00488 20.555 2.00488 20.0027V4.00275C2.00488 3.45046 2.4526 3.00275 3.00488 3.00275ZM12.0049 9.00275V6.00275L17.0049 11.0027H8.00488V9.00275H12.0049ZM7.00488 13.0027H16.0049V15.0027H12.0049V18.0027L7.00488 13.0027Z"/></svg>

<svg viewBox="0 0 24 24" xmlns="http://www.w3.org/2000/svg"><path fill="none" d="M0 0h24v24H0Z"/><path d="M4 5v14h16V5H4ZM3 3h18v0c.55 0 1 .44 1 1v16 0c0 .55-.45 1-1 1H3v0c-.56 0-1-.45-1-1V4v0c0-.56.44-1 1-1Zm9 6V6l5 5H8V9h4Zm-5 4h9v2h-4v3l-5-5Z"/></svg>
